**kern	**kern	**kern
*staff1	*staff2	*staff3
=1-	=1-	=1-
*clefG2	*clefG2	*clefF4
*k[b-]	*k[b-]	*k[b-]
*M3/4	*M3/4	*M3/4
4d/	4A/ 4d/	4D\ 4F\
4f/	4A/ 4d/	4D\ 4F\
4d/	4A/ 4d/	4D\ 4F\
=2	=2	=2
2a;/	2A;/ 2e;/	2C;\ 2E;\
4dd\	8d/L 8f/	4BB-/
=3	8e/J 8g/	=3
4cc\	=3	4AA/
8r	8f/L 8a/	4r
8cc\	8c/	4A\ 4c\
8dd\	8f/	=4
!!linebreak:original
8a/	8a/J	4.G\ 4.d\
=4	4f#/ 4dd/	8GG/L
!!linebreak:original
(4cc\	=4	8GG/
!!linebreak:original
8b-\)	8f#/L	8AA/J
8b-\	8a/	=5
8b-\	8g/ 8b-/	4BB-/
8a/	8d/ 8b-/	8r
=5	8d/ 8b-/	8B-\L
(4a/	8c/J 8a/	8B-\
8g/)	=5	8A\J
4r	8d/L 8a/	=6
8g/	8f#/	4B-\
=6	8g/	4r
8dd\	8d/	4B-\
8cc\	8d/	=7
8cc\L	8c/J	2A\
8b-\J	=6	4r
8a/L	4d/ 4g/	=8
!!linebreak:original
8g#/J	4r	4.GG/
=7	4d/ 4f/	8G\L 8B-\
(4g#/	=7	8G\ 8B-\
4a/)	4d/ 4f/	8G\J 8B-\
4r	4c#/ 4e/	=9
=8	4r	4.FF/
!!linebreak:original
4b-\	=8	8F\L 8B-\
!!linebreak:original
4r	8r	8F\ 8B-\
4r	8d/L	8F\J 8B-\
=9	8g/	=10
4dd\	8d/ 8b-/	4.FF/
8r	8d/ 8a/	8F\L 8c\
8dd\	8d/J 8b-/	8F\ 8c\
8cc\	=9	8F\J 8c\
8b-\	8r	=11
=10	8d/L	4.FF#/
4a/	8f/	8F#\L 8c\
4r	8d/ 8f/	8F#\ 8c\
8r	8d/ 8f/	8F#\J 8c\
8a/	8d/J 8f/	=12
!!linebreak:original
=11	=10	4.GG/
4.cc\	8r	8G\L
8cc\	8c/L	8A\
8b-\	8e-/	8B-\J
8a/	8e-/ 8a/	=13
=12	8e-/ 8g#/	4A\
!!linebreak:original
4b-\	8e-/J 8a/	4G\
8r	=11	4AA\ 4G\
8b-\	8r	=14
8a/	8c/L	4DD\ 4D\
8g#/	8d/	4r
=13	8d/ 8a/	8AA\L 8C#\ 8G\
4a/	8d/ 8a/	8E\J
4r	8d/J 8a/	=15
*	*	*^
4a/	=12	4G/	2D\
!!linebreak:original
=14	8r	4F/	.
*	*	*v	*v
4d/	8d/L	4r
4r	8g/	=16||
!!pagebreak:original
4r	8d/ 8g/	4D\ 4F\
=15	8d/ 8f/	4D\ 4F\
2.r	8d/J 8e/	4D\ 4F\
=16	=13	=17
!!pagebreak:original
=	4d/ 4f/	2C;\ 2E;\
4d/	4d/ 4e/	4BB-/
4f/	4c#/ 4e/	=18
4d/	=14	2AA/
=17	8dd/L	4A\ 4c\
2a;/	8ff/	=19
4dd\	8d/	4.GG/
=18	8f/	8GG/L
4cc\	8A/ 8e/	8GG/
8r	8c#/J	8AA/J
8cc\	=15	=20
!!linebreak:original
8dd\	[4A/ 4c#/	4.BB-/
8a/	4A/] 4d/	8B-\L
=19	4r	8B-\
(4cc\	=16||	8A\J
!!pagebreak:original
8b-\)	4A/ 4d/	=21
8b-\	4A/ 4d/	4B-\
8b-\	4A/ 4d/	4r
8a/	=17	4B-\
=20	2A;/ 2e;/	=22
!!linebreak:original
(4a/	8d/L 8f/	8BB-\L
4g/)	8e/J 8g/	8B-\
8r	=18	8B-\
8g/	8f/L 8a/	8A\
=21	8c/	8B-\
8g\L	8f/	8B-\J
8dd\	8a/J	=23
!!linebreak:original
8cc\J	4f#/ 4dd/	4A-\
8b-\	=19	4r
8a/	8a/L	4A-\
8g/	8f#/	=24
=22	8g/	2G\
(4f/	8d/ 8g/	4r
4e/)	8d/ 8g/	=25
8r	8c/J 8f#/	2C/
8e/	=20	4F\
!!linebreak:original
=23	8d/L	=26
!!linebreak:original
8f/L	8f#/	2BB-/
8cc/J	8g/	4r
8b-\	8d/	=27
8a-/L	8d/	4r
8g/J	8c/J	4AA/
8f#/	=21	4AA\ 4G\
=24	4d/	=28
(4f#/	4r	4DD/ 4D/
4g/)	4d/	4r
4r	=22	8AA/L 8C#/
=25	8r	8E/J
4ee-\	8d-/L	=29
*	*	*^
8ee-\	8d-/	4G/	2D\
8ee-\	8c/	4F/	.
*	*	*v	*v
8dd\	8d-/	4r
8cc#\	8d-/J	=30||
!!pagebreak:original
=26	=23	4D\ 4F\
!!linebreak:original
4dd\	4c/	4D\ 4F\
8r	4r	4D\ 4F\
8dd\	4c/ 4e-/	=31
8b-\	=24	2C\ 2E\
8a/	4c/ 4e-/	4BB-/
=27	4Bn/ 4d/	=32
4g#/	4r	4AA/
4r	=25	4r
4a/	2e-/ 2g/	4D\ 4d\
=28	4f/ 4a/	=33
*	*	*^
4d/	=26	4e-/	2G\
!!linebreak:original
4r	8r	4d;/	.
*	*	*v	*v
4r	8d/L	4r
=29	8f/	=34
!!linebreak:original
2.r	8b-/J	8r
=30||	4dd\	8c\L
!!pagebreak:original
4f/	=27	8c\
4f/	4r	8c\
4d/	4d/ 4f/ 4a/	8c\
=31	4c#/ 4e/ 4a/	8c\J
4a/	=28	=35
4r	8F/L 8d/	4B-\
4dd\	8A/	4r
=32	8d/	4r
4cc\	8f/J	=36
8r	8G/L 8e/	8r
8cc\	8c#/J	8B-\L
8dd\	=29	8B-\
8a/	4G/ 4c#/	8B-\
=33	4F/ 4d/	8An\
(4cc\	4r	8B-\J
8b-;\)	=30||	=37
!!pagebreak:original
!!linebreak:original
8b-\	4A/ 4d/	4A-\
8a/	4A/ 4d/	4r
8g/	4A/ 4d/	4A-\ 4c\
=34	=31	=38
!!linebreak:original
(4g/	2A/ 2e/	4G\ 4e-\
4f#/)	8d/L 8f/	8G\ 8d\
4r	8e/J 8g/	8r
=35	=32	4r
8r	8f/L 8a/	=39
8g/	8c/	2C/
8f#/	8f/	4F\
8g/	8a/J	=40
!!linebreak:original
8b-\	4f#/ 4dd/	4.BB-/
8g/	=33	8B-\L
=36	4f#/ 4a/	8B-\
(4fn/	4g;/ 4b-;/	8B-\J
4e/)	4r	=41
8r	=34	4.BB-/
!!linebreak:original
8e/	8r	8B-\L
=37	8e-/L	8B-\
!!linebreak:original
8f/L	8e-/	8B-\J
8cc/	8e-/	=42
8b-/J	8e-/	4A\
8a-/	8e-/J	4A\
8g/	=35	4AA\ 4G\
8f#/	4d/	=43
=38	4r	4D\ 4F\
(4cc\	4r	4r
8bn\)	=36	8AA/ 8C#/ 8G/
8g/	8r	8E\
b-q/	8d-/L	=44
8a-/	8d-/	4D\ 4G\
8g/	8d-/	4D\ 4F\
=39	8c/	4r
2ee-\	8d-/J	==
*	*	*-
8dd\L	=37
!!linebreak:original
8cc#\J	4c/
=40	4r
!!linebreak:original
4dd\	4e-/
8r	=38
8dd\	4f#/
8b-\	8g/
8a/	8r
=41	4r
4g#/	=39
4r	2e-/ 2g/
4r	4f/ 4a/
=42	=40
!!linebreak:original
4r	8r
2a/	8d/L
=43	8f/
4d/	8d/ 8f/
4r	8d/ 8f/
4r	8d/J 8f/
=44	=41
2.r	8r
==	8d/L
*-	*
8f/
8d/ 8f/ 8dd/
8d/ 8f/ 8b-/
8d/J 8g#/
=42
4d/ 4f/ 4a/
4d/ 4e/
4c#/ 4e/
=43
8d/L
8A/
8d/
8f/
8A/ 8e/
8c#/J
=44
[4A/ 4c#/
4A/] 4d/
4r
==
*-
